X: 131919
T: Mower [The] HP
T: Spealad\'oir [An]
S: "Roche Collection of Traditional Irish Music" [II/19/238]
L: 1/8
M: 4/4
R: hornpipe
K: Edor
(3Bcd | e2 e2 egfd | edBA B2 Bc | d2 d2 dgfd | edBG A2 BA |
GFGA Bged | edBc dfeE | EFGA BdBA | G2 E2 E2 :|
GA | BGEG BGEG | BAGF E2 FG | AFDF AFDF | AGFE D2 EF |
GFGA Bged | edBc dfeE | EFGA BdBA | G2 E2 E2 :|
